img/hero__benefit.svg

<svg width="30" height="20" viewBox="0 0 30 20" fill="none" xmlns="http://www.w3.org/2000/svg">
<path d="M11.0404 19.5C10.5795 19.5 10.1369 19.3434 9.81005 19.0635L0.509813 11.0986C-0.169938 10.5167 -0.169938 9.5729 0.509813 8.99067C1.18919 8.40845 2.29146 8.40813 2.97084 8.99067L10.9689 15.8399L26.9613 0.49776C27.6012 -0.115709 28.7013 -0.169914 29.4186 0.37851C30.1356 0.926934 30.1981 1.86914 29.5578 2.48324L12.3385 19.002C12.0198 19.3077 11.5679 19.4876 11.0895 19.4994C11.0731 19.4997 11.0568 19.5 11.0404 19.5Z" fill="#FF2B00"/>
</svg>

<svg width="30" height="20" fill="none" xmlns="http://www.w3.org/2000/svg"><path d="M11.04 19.5c-.46 0-.903-.157-1.23-.436l-9.3-7.965c-.68-.582-.68-1.526 0-2.108.68-.583 1.781-.583 2.46 0l7.999 6.849L26.96.498c.64-.614 1.74-.668 2.458-.12.717.549.78 1.491.139 2.105l-17.22 16.519c-.318.306-.77.486-1.248.497l-.05.001z" fill="#FF2B00"/></svg>
